X:178
M:4/4
L:1/8
K:D
| a2ag eaaf | geed efge | a2ag eaaf | gedB BAA2 | 
a2ag eaaf | geed efg2 | bgag egfa | gedB BAA2 || 

